X:1
T:Title
%%score { ( 1 3 ) | ( 2 4 ) }
L:1/8
M:3/4
K:G
V:1 treble nm="Grand Piano"
V:3 treble 
V:2 bass 
V:4 bass 
V:1
 z2 z2[Q:1/4=100] D>^C | E2 D2 (3DEG | G2 F2 (3DF[FA] | [Fc]2 [Fe]2 [Fd]>[Ac] | B4 (3B_B=B | %5
 d2 B2 (3GAB | [=Fd]2 [Ec]2 (3[Ec][EB][EA] | [DG]2 [GB]2 [FB]>[DA] | [B,DG]6 |[M:6/8] D3 B2 G | %10
 G3 F3 | [Fc]3 [A,CE]2 [EFc] | [EGc]3 [DGB]3 | [Gd]3 [Gc]2 [GB] | [EA]3 [A,CE]3 | [A,^CG]3 [CGA]3 | %16
 [FA]3- [CFA]3 | D3 B2 G | G3 F3 | [Fc]3 [Fe]2 [Fd] | [Ac]3 B3 | d3 c2 B | %22
[M:15/16] [EA]3 [Ge]3/2- [Ge]3 | %23
[M:3/4] [Gd]3 [FB]3[Q:1/4=99][Q:1/4=97][Q:1/4=96][Q:1/4=94][Q:1/4=93][Q:1/4=91][Q:1/4=90][Q:1/4=88][Q:1/4=87][Q:1/4=85][Q:1/4=84][Q:1/4=82][Q:1/4=81][Q:1/4=79] | %24
[M:5/8] G-G- G3[Q:1/4=78][Q:1/4=76] |] %25
V:2
 z2 z2 [G,B,]>[G,_B,] | [G,_B,]2 [G,=B,]2 (3[G,B,][G,B,D][G,B,D] | %2
 [A,CD]2 [D,CD]2 (3[D,F,C][D,A,C][D,C] | [D,A,]2 [D,C]2 [D,B,]>[F,D] | %4
 [G,DG]4 (3[G,DG][G,^CG][G,DG] | [G,B,G]2 [G,DG]2 (3[G,B,][G,CG][G,DG] | %6
 [B,,G,]2 [C,G,]2 (3[A,,A,][B,,^G,][C,A,] | [D,B,]2 [D,D]2 [D,D]>[D,C] | [G,,G,]6 | %9
[M:6/8] [G,B,]3 [G,D]2 [G,B,D] | [A,CD]3 [D,CD]3 | [D,A,]3 D,2 D, | G,3 G,3 | %13
 [G,B,]3 [E,G,]2 [D,G,] | [C,G,]3 C,3 | A,,3 A,,3 | D,6 | [G,B,]3 [F,G,D]2 [G,B,D] | %18
 [A,CD]3 [D,CD]3 | [D,A,]3 [D,C]2 [D,B,] | [F,D]3[K:treble] [G,DG]3 | [G,B,G]3 [G,EG]2 [G,DG] | %22
[M:15/16][K:bass] z A,-<A,[^C,_B,]3/2- [C,B,]3 |[M:3/4] [D,B,]3 [D,D]3 |[M:5/8] B,2 C B,2 |] %25
V:3
 x6 | x6 | x6 | x6 | x6 | x6 | x6 | x6 | x6 |[M:6/8] x6 | x6 | x6 | x6 | x6 | x6 | x6 | D3 z3 | %17
 x6 | x6 | x6 | x6 | x6 |[M:15/16] .C3/2 z3/2 z3/2 z3 |[M:3/4] x6 |[M:5/8] z2 E D2 |] %25
V:4
 x6 | x6 | x6 | x6 | x6 | x6 | x6 | x6 | x6 |[M:6/8] x6 | x6 | x6 | x6 | x6 | x6 | x6 | x6 | x6 | %18
 x6 | x6 | x3[K:treble] x3 | x6 |[M:15/16][K:bass] C,3 z3/2 z3 |[M:3/4] x6 |[M:5/8] G,-G,- G,3 |] %25

